public/ExpressJS.svg

<svg width="50" height="50" viewBox="0 0 50 50" fill="none" xmlns="http://www.w3.org/2000/svg">
<path d="M12.8153 10.457C7.55436 10.3616 2.39168 13.8878 0.734479 19.7799C-0.0827348 22.4909 -0.117375 25.1453 0.147003 27.9295C0.379019 30.9175 1.58338 33.7472 3.57395 35.9877C5.58713 37.8804 8.14708 39.0874 10.888 39.4375C13.629 39.7875 16.4095 39.2622 18.8336 37.9362C20.3013 37.0569 21.5507 35.8559 22.4874 34.4244C23.4241 32.9927 24.0238 31.3676 24.2417 29.6707C22.9341 29.2696 22.2214 29.5084 21.789 30.8995C21.4569 32.2688 20.7915 33.5342 19.8503 34.5827C18.9091 35.6311 17.7213 36.4293 16.3956 36.9064C8.21795 39.6407 1.82222 34.289 2.18359 25.4262H24.4816C24.6758 20.4632 23.6878 16.0607 19.7295 12.9505C17.6172 11.2925 15.2066 10.5003 12.8153 10.457V10.457ZM12.7892 12.4935C18.1971 12.5353 22.2511 17.0917 22.3765 23.5169H2.21133L2.19665 23.4875C2.46192 16.866 6.76926 12.41 12.7892 12.4935V12.4935Z" fill="#1096E1"/>
<path d="M49.9996 39.328C49.2397 39.6154 48.4008 39.6147 47.6414 39.3262C46.8818 39.0376 46.2542 38.4811 45.8769 37.7616L38.3712 27.382L37.2834 25.9309L28.5747 37.7746C28.22 38.4639 27.6265 39.0005 26.905 39.284C26.1835 39.5675 25.3834 39.5784 24.6543 39.3149L35.8759 24.26L25.4375 10.6606C26.1881 10.3901 27.0089 10.3865 27.7618 10.6504C28.5147 10.9143 29.1536 11.4296 29.5711 12.1095L37.3509 22.6175L45.1742 12.153C45.5316 11.476 46.1254 10.9538 46.8425 10.6859C47.5597 10.4179 48.3504 10.4229 49.0641 10.6997L45.0132 16.0756L39.5264 23.2179C39.3741 23.3539 39.2522 23.5204 39.1687 23.7067C39.0852 23.8931 39.042 24.095 39.042 24.2992C39.042 24.5033 39.0852 24.7052 39.1687 24.8915C39.2522 25.0779 39.3741 25.2445 39.5264 25.3804L49.9779 39.3302L49.9996 39.328Z" fill="#1096E1"/>
</svg>

<svg xmlns="http://www.w3.org/2000/svg" width="50" height="50" fill="#1096e1" xmlns:v="https://vecta.io/nano"><path d="M12.815 10.457C7.554 10.362 2.392 13.888.734 19.78c-.817 2.711-.852 5.365-.587 8.15a13.73 13.73 0 0 0 3.427 8.058 13.1 13.1 0 0 0 15.26 1.949 11.32 11.32 0 0 0 3.654-3.512c.937-1.432 1.536-3.057 1.754-4.754-1.308-.401-2.02-.162-2.453 1.229a8.52 8.52 0 0 1-5.393 6.007C8.218 39.641 1.823 34.29 2.184 25.427h22.298c.194-4.963-.794-9.365-4.752-12.476-2.112-1.658-4.523-2.45-6.914-2.493h0zm-.026 2.036c5.408.042 9.462 4.598 9.587 11.023H2.211l-.015-.029c.265-6.622 4.573-11.077 10.593-10.994h0zM50 39.328c-.76.287-1.599.287-2.358-.002s-1.387-.845-1.764-1.565l-7.506-10.38-1.088-1.451-8.709 11.844a3.19 3.19 0 0 1-3.92 1.54L35.876 24.26 25.438 10.661a3.47 3.47 0 0 1 4.134 1.449l7.78 10.508 7.823-10.464a3.12 3.12 0 0 1 3.89-1.453l-4.051 5.376-5.487 7.142a1.45 1.45 0 0 0 0 2.162l10.451 13.95.022-.002z"/></svg>
